NotoEmoji/emoji_u1f532.svg

<svg enable-background="new 0 0 128 128" viewBox="0 0 128 128" xmlns="http://www.w3.org/2000/svg"><path d="m116 4h-104c-4.42 0-8 3.58-8 8v104c0 4.42 3.58 8 8 8h104c4.42 0 8-3.58 8-8v-104c0-4.42-3.58-8-8-8z" fill="#575757"/><path d="m109.7 4h-98.2c-4.13.03-7.47 3.37-7.5 7.5v97.9c-.01 4.14 3.34 7.49 7.48 7.5h.02 98.1c4.14.01 7.49-3.34 7.5-7.48 0-.01 0-.01 0-.02v-97.9c.09-4.05-3.13-7.41-7.18-7.5-.07 0-.15 0-.22 0z" fill="#424242"/><path d="m28.1 24.7h73c1.6 0 2.9 1.3 2.9 2.9v73c0 1.6-1.3 2.9-2.9 2.9h-73c-1.6 0-2.9-1.3-2.9-2.9v-72.9c-.08-1.58 1.14-2.92 2.72-3z" fill="#bdbdbd"/><path d="m28.1 24.7h67.4c1.6 0 2.9 1.3 2.9 2.9v67.4c0 1.6-1.3 2.9-2.9 2.9h-67.4c-1.6 0-2.9-1.3-2.9-2.9v-67.3c-.08-1.58 1.14-2.92 2.72-3z" fill="#e0e0e0"/><path d="m49 33.5c0-1.5-1-1.9-6.9-1.7-4.9.2-7.3.8-8.8 2.6s-1.9 5.4-1.9 9.8c0 3.1 0 5.9 1.6 5.9 2.2 0 2.2-5 4-7.9 3.3-5.5 12-6.7 12-8.7z" fill="#fff"/></svg>

<?xml version="1.0" encoding="utf-8"?>
<!-- Generator: Adobe Illustrator 25.2.3, SVG Export Plug-In . SVG Version: 6.00 Build 0)  -->
<svg version="1.1" id="Layer_2" xmlns="http://www.w3.org/2000/svg" xmlns:xlink="http://www.w3.org/1999/xlink" x="0px" y="0px"
	 viewBox="0 0 128 128" style="enable-background:new 0 0 128 128;" xml:space="preserve">
<g>
	<path style="fill:#575757;" d="M116,4H12c-4.42,0-8,3.58-8,8v104c0,4.42,3.58,8,8,8h104c4.42,0,8-3.58,8-8V12
		C124,7.58,120.42,4,116,4z"/>
	<path style="fill:#424242;" d="M109.7,4H11.5C7.37,4.03,4.03,7.37,4,11.5v97.9c-0.01,4.14,3.34,7.49,7.48,7.5c0.01,0,0.01,0,0.02,0
		h98.1c4.14,0.01,7.49-3.34,7.5-7.48c0-0.01,0-0.01,0-0.02V11.5c0.09-4.05-3.13-7.41-7.18-7.5C109.85,4,109.77,4,109.7,4z"/>
	<path style="fill:#BDBDBD;" d="M28.1,24.7h73c1.6,0,2.9,1.3,2.9,2.9l0,0v73c0,1.6-1.3,2.9-2.9,2.9l0,0h-73c-1.6,0-2.9-1.3-2.9-2.9
		l0,0V27.7c-0.08-1.58,1.14-2.92,2.72-3C27.98,24.7,28.04,24.7,28.1,24.7z"/>
	<path style="fill:#E0E0E0;" d="M28.1,24.7h67.4c1.6,0,2.9,1.3,2.9,2.9l0,0V95c0,1.6-1.3,2.9-2.9,2.9l0,0H28.1
		c-1.6,0-2.9-1.3-2.9-2.9l0,0V27.7c-0.08-1.58,1.14-2.92,2.72-3C27.98,24.7,28.04,24.7,28.1,24.7z"/>
	<path style="fill:#FFFFFF;" d="M49,33.5c0-1.5-1-1.9-6.9-1.7c-4.9,0.2-7.3,0.8-8.8,2.6s-1.9,5.4-1.9,9.8c0,3.1,0,5.9,1.6,5.9
		c2.2,0,2.2-5,4-7.9C40.3,36.7,49,35.5,49,33.5z"/>
</g>
</svg>
